!!!OTL: Der Baum im Odenwald:
!!!OTL-incipit: ES STEHT EIN BAUM IM ODENWALD
!!!ARE: Europa, Mitteleuropa, Deutschland, Franken
!!!SCT: Z1220
!!!TXL: @@DE
!!!YEM: Copyright 1995, estate of Helmut Schaffrath.
**kern	**text
*ICvox	*
*M4/4	*
*met(c)	*
*k[b-e-a-]	*
*E-:	*
!LO:TX:a:t=Aus Franken.	!
{8e-L	Es
8gJ	.
=1	=1
4b-/	ſteht
4b-/L	ein
4g	Baum
4e-	im
=2	=2
8fL	O-
8e-J	.
8fL	-den-
8gJ	.
4f}	-wald,
{8e-L	der
8gJ	.
=3	=3
4b-/	hat
4b-/	viel
4g	grü-
4e-	-ne
=4	=4
2f	Aeſt',
4r}	.
{8b-/L	da
8ddJ	.
=5	=5
4ff/	bin
4ff/	ich
4dd/	wohl
4b-/	viel
=6	=6
4.b-/	tau-
8ee-/	-ſend-
4ee-/}	-mal
{8b-/L	mit
8ddJ	.
=7	=7
4ff/	meinem
4ff/	.
4dd/	Schatʒ
4b-/	ge-
=8	=8
2ee-/	-weſt!
4r}	.
==	==
!!!AGN: Liebes - Lied, verlassene Liebe, Klage, Leid
!!!ONB: ESAC (Essen Associative Code) Database: ZUCCAL
!!!AMT: simple quadruple
!!!AIN: vox
!!!EED: Helmut Schaffrath
!!!EEV: 1.0
!!!GTL: V. Lieder der Minne.
!!!URL-scan: https://www.digitale-sammlungen.de/de/view/bsb11160573?page=428
!!!ENC: Anna Maria Matuszewska
!!!EEV: 2025/02/06
*-	*-
